X:232
T:Polska fr{\aa}n Vrankunge
R:sl\"angpolska
H:efter Anders Svensson i Vrankunge
Z:id:hn-sp-232
M:3/4
L:1/16
K:Am
cBAG G2A2- A2AB | cBA2 c2e2 B4 | cBAG G2A2- A2AB | cBcB cBAG A4 |
cBAG G2A2- A2AB | cBA2 c2e2 B4 | cBAG G2A2- A2AB | cBcB cBAG A4 :|
|: A2a2 a2ga g2e2 | gfef gagf gfed | efga gfgf eded | cBAG A2E2 C2E2 |
A2a2 a2ga g2e2 | gfef g3f gfed | efga gfgf eded | cBAG G2A2 A4 :|

